X: 1
T:O'Connell's Lamentation
M:3/4
L:1/8
Q:100
C:Traditional
S:PWB 75
R:Lament
K:ADor
|:A4 dc|"AM"A2 G2 E2|"C"G2 c2 d2|"C"e2 a2 "D"f2|"C"g2 e2 c2|
"Dm"d3 c "AM" A2|"Em"G2 E2 F2|"G"G4 E2 |!
"Am"A2 d3 c|"C"A2 G2  E2|"Am"c3 d ef|"G"g2 e2 a2|
"C"g3 e c2|"Dm"d3 c A2|"Am"A6|"Am"A4z:|!
|:"G"g3 f af|"G"g3 b ag|"Dm"=f>e de fd|"Am"e4 A|
"Am"cB cd ef|"G"g3 e cA|"G"G2 E2 "C"cA|"C"G2 E2 G2 |!
"Am"A2 ABcA|"G"B2 Bc dB|"C"c>B cd ef|"G"g2 e2 a2|
"C"g3 e c2|"Dm"d3 c A2|"Am"A6|"Am"A4 AB :|!
|:"Am"c2 E2 F2|"G"G4 AB|"C"c>B cd ef|"G"g2 e2 "F"a2|
"C"g=f e2 fe|"Dm"d=f ed cB|"Am"c2 E2 F2|"G"G4 AB  |!
"Am"c2 E3 F|"G"G4 "Am"AB|"C"cB cd ef|"G"g2 e2 "F"a2|
"C"g3 e c2|"Dm"d3 c A2|"Am"A6|"Am"A4 E2:|
% Output from ABC2Win  Version 2.1  on 2/11/98
